src/Icon/svgs/menu.svg

<svg width="24" height="24" viewBox="0 0 24 24" fill="none" xmlns="http://www.w3.org/2000/svg">
<path fill-rule="evenodd" clip-rule="evenodd" d="M4.00012 7H20.0001V5H4.00012V7ZM4.00012 13H20.0001V11H4.00012V13ZM4.00012 19H20.0001V17H4.00012V19Z" fill="#1B1C1D"/>
</svg>

<svg xmlns="http://www.w3.org/2000/svg" width="24" height="24" fill="none"  xmlns:v="https://vecta.io/nano"><path fill-rule="evenodd" d="M4 7h16V5H4v2zm0 6h16v-2H4v2zm0 6h16v-2H4v2z" fill="#1b1c1d"/></svg>
